src/pos-icons/credit-card.svg

<svg height="24" viewBox="0 0 24 24" width="24" xmlns="http://www.w3.org/2000/svg"><path d="m20 4h-16a2 2 0 0 0 -2 2v12a2 2 0 0 0 2 2h16a2 2 0 0 0 2-2v-12a2 2 0 0 0 -2-2m0 7h-16v-3h16z"/></svg>

<?xml version="1.0" encoding="UTF-8"?><!DOCTYPE svg PUBLIC "-//W3C//DTD SVG 1.1//EN" "http://www.w3.org/Graphics/SVG/1.1/DTD/svg11.dtd"><svg xmlns="http://www.w3.org/2000/svg" xmlns:xlink="http://www.w3.org/1999/xlink" version="1.1" id="mdi-credit-card" width="24" height="24" viewBox="0 0 24 24"><path d="M20 4H4A2 2 0 0 0 2 6V18A2 2 0 0 0 4 20H20A2 2 0 0 0 22 18V6A2 2 0 0 0 20 4M20 11H4V8H20Z" /></svg>
